X:8
T:Paddy West
C:Traditional
S:A. L. Lloyd
M:3/4
K:G
L:1/8
f3 | edB | e2f | d2B | A2B | d2e | (d3 | d3)
a3 | fga | b3 | afe | d2f | e2d | (B3 | B3)
a3 | fga | b3 | afe | d2f | e2d | (B3 | B3)
f2f | edB | e2f | d2B | A2B | d2e | (d3 | d3)
a2b | d'2e' | (d'3 | d'3) :|
%%textfont Times-Roman 21
%%begintext
As I went walking down London road, I come to Paddy West's house
He give me a plate of American hash, and calls it Liverpool scouse
He said there's a ship that's wanting hands, and on her you must sign
The mate's a bastard, the bosun's worse, but she will suit you fine

Take off your dungaree jacket, and give yourself a rest
And we'll think on them cold n'or westers that we had at Paddy West

After I finished the plate me boys, the wind began to blow
He sent me up to the attic, the mail royal for to stow
But when I get up to the attic, no main royal could I find
So I turned around to the window and I furled the window blind

Take off your dungaree jacket, and give yourself a rest
And we'll think on them cold n'or westers that we had at Paddy West

Paddy he piped “All hands on deck, their stations for to man”
His wife, she stood in the doorway, with a bucket in her hand
Paddy he cried “Now let her rip” and she flung the water our way
Saying “Clew up yer 'fore t'gansls boys, she's takin' in the spray”

Take off your dungaree jacket, and give yourself a rest
And we'll think on them cold n'or westers that we had at Paddy West

Since your headed away to the south me boys, to Frisco you are bound
Paddy he called for a length of rope and layed on the ground
He had us step over and back again and he says to me “that's fine”
And if ever they ask was you ever at sea, you can say you've crossed the line

Take off your dungaree jacket, and give yourself a rest
And we'll think on them cold n'or westers that we had at Paddy West

There's only one thing left that you must do before you sail away
Walk around the table, where the bullocks horn does lay
And if ever they ask, was you ever at sea, you can say ten times 'round the Horn
And be'Jesus that you was a sailorman since the day that you was born

Put on your dungaree jacket, and walk up looking your best
And tell 'em that you're an old sailorman since the day that you was born
Put on your dungaree jacket, and walk up looking your best
And tell 'em that you're an old sailorman since the day that you was born
%%endtext
%%newpage

